X: 39418
T: Tar Road To Sligo, The
R: jig
M: 6/8
K: Dmajor
d2e|:fdB Bcd|ecA A2G|FGA ABc|dcd efg|
fdB Bcd|ecA A2G|FGA Aag|1 fdd d2e:|2 fdd d2B||
|:Adf Adf|gfg efg|afd dcd|Bed cBA|
Adf Adf|gfg efg|afd bge|edc d3:|

